!!!OTL: SONST SPIELT ICH MIT SCEPTER
!!!ARE: Europa, Mitteleuropa, Deutschland
!!!SCT: B0675
!!!YEM: Copyright 1995, estate of Helmut Schaffrath.
**kern
*ICvox
*Ivox
*M3/4
*k[b-e-a-]
*E-:
{8g
=1
4g
4e-
8r
8cc
=2
4cc
4b-
8r}
{8cc
=3
4b-
4g
8g
8ee-
=4
2ee-}
{4ee-
=5
8ee-
8dd
4.a-
8cc
=6
8cc
8b-
4.g}
{8b-
=7
4b-
8a-
8g
8f
8b-
=8
2e-}
{4g
=9
4g
4e-
4cc
=10
8b-
8cc
4.a-}
{8a-
=11
4g
4ee-
8dd
8cc
=12
4b-
4.a-}
{8a-
=13
4g
4dd
8an
8b-
=14
4g
4d}
{8an
8b-
=15
8g
8dd
8ee-
8dd
12an
12cc
12b-
=16
2g}
{4b-
=17
4cc
4.b-
8b-
=18
4cc
4b-}
{8b-
8ee-
=19
4ee-
8dd
8cc
8a-
8cc
=20
2b-}
{4ee-
=21
8ff
8ee-
4.bn
8cc
=22
8dd
8cc
4.an}
{8b-
=23
4cc
4b-
4a-
=24
2g}
{4b-
=25
4b-
4dd
4ee-
=26
8ff
8ee-
8dd
8cc}
{8dd
8cc
=27
4cc
8b-
8a-
8g
8f
=28
2e-
8r}
==
!!!AGN: Moral - Lied, Vergaenglichkeit
!!!ONB: ESAC (Essen Associative Code) Database: BOEHME
!!!AMT: simple triple
!!!AIN: vox
!!!EED: Helmut Schaffrath
!!!EEV: 1.0
*-
